dist/svgs/unicons/line/horizontal-align-right.svg

<svg xmlns="http://www.w3.org/2000/svg" viewBox="0 0 24 24"><path d="M21 2a1 1 0 00-1 1v3H9a1 1 0 00-1 1v3H3a1 1 0 00-1 1v6a1 1 0 001 1h17v3a1 1 0 002 0V3a1 1 0 00-1-1zm-1 14H4v-4h16zm0-6H10V8h10z"/></svg>

<svg xmlns="http://www.w3.org/2000/svg" viewBox="0 0 24 24"><path d="M21,2a1,1,0,0,0-1,1V6H9A1,1,0,0,0,8,7v3H3a1,1,0,0,0-1,1v6a1,1,0,0,0,1,1H20v3a1,1,0,0,0,2,0V3A1,1,0,0,0,21,2ZM20,16H4V12H20Zm0-6H10V8H20Z"/></svg>
